svgs/sharp-light/light-emergency-on.svg

<svg xmlns="http://www.w3.org/2000/svg" viewBox="0 0 640 512"><!--! Font Awesome Pro 6.6.0 by @fontawesome - https://fontawesome.com License - https://fontawesome.com/license (Commercial License) Copyright 2024 Fonticons, Inc. --><path d="M55.2 33.7L40.8 26.5 26.5 55.2l14.3 7.2 64 32 14.3 7.2 14.3-28.6-14.3-7.2-64-32zm544 28.6l14.3-7.2L599.2 26.5l-14.3 7.2-64 32-14.3 7.2 14.3 28.6 14.3-7.2 64-32zM16 192L0 192l0 32 16 0 64 0 16 0 0-32-16 0-64 0zm544 0l-16 0 0 32 16 0 64 0 16 0 0-32-16 0-64 0zm-112 0l0 128 32 0 0-128c0-88.4-71.6-160-160-160s-160 71.6-160 160l0 128 32 0 0-128c0-70.7 57.3-128 128-128s128 57.3 128 128zM128 448l0-64 384 0 0 64-384 0zM96 352l0 32 0 64 0 32 32 0 384 0 32 0 0-32 0-64 0-32-32 0-384 0-32 0zM320 128l0-32c-53 0-96 43-96 96l32 0c0-35.3 28.7-64 64-64z"/></svg>

<svg xmlns="http://www.w3.org/2000/svg" viewBox="0 0 640 512"><!--! Font Awesome Pro 6.4.0 by @fontawesome - https://fontawesome.com License - https://fontawesome.com/license (Commercial License) Copyright 2023 Fonticons, Inc. --><path d="M55.2 33.7L40.8 26.5 26.5 55.2l14.3 7.2 64 32 14.3 7.2 14.3-28.6-14.3-7.2-64-32zm544 28.6l14.3-7.2L599.2 26.5l-14.3 7.2-64 32-14.3 7.2 14.3 28.6 14.3-7.2 64-32zM16 192H0v32H16 80 96V192H80 16zm544 0H544v32h16 64 16V192H624 560zm-112 0V320h32V192c0-88.4-71.6-160-160-160s-160 71.6-160 160V320h32V192c0-70.7 57.3-128 128-128s128 57.3 128 128zM128 448V384H512v64H128zM96 352v32 64 32h32H512h32V448 384 352H512 128 96zM320 128V96c-53 0-96 43-96 96h32c0-35.3 28.7-64 64-64z"/></svg>
